icon-themes/breeze_svg/cmd/lc_calculate.svg

<svg viewBox="0 0 24 24" xmlns="http://www.w3.org/2000/svg"><path d="m5 4v1 13h1 2 1v1 1h5v-1h-4v-11h8v6h1v-6-1h-2v-3h-1-10zm1 1h10v2h-7v1 9h-1-2z" fill="#4d4d4d"/><path d="m17.5625 15.0625c-.433427 0-.832855.1201-1.1875.3125l.75.75c.137094-.041.286709-.0625.4375-.0625.831 0 1.5.669 1.5 1.5 0 .1508-.02148.3004-.0625.4375l.75.75c.192495-.3547.3125-.7541.3125-1.1875 0-1.385-1.115-2.5-2.5-2.5zm-2.1875 1.3125c-.192495.3547-.3125.7541-.3125 1.1875 0 1.385 1.115 2.5 2.5 2.5.433427 0 .832855-.1201 1.1875-.3125l-.75-.75c-.137094.041-.286709.0625-.4375.0625-.831 0-1.5-.669-1.5-1.5 0-.1508.02147-.3004.0625-.4375z" fill="#1d99f3"/></svg>

<svg viewBox="0 0 24 24" xmlns="http://www.w3.org/2000/svg">
  <path
     style="fill:#4d4d4d"
     d="M 5 4 L 5 5 L 5 18 L 6 18 L 8 18 L 9 18 L 9 19 L 9 20 L 14 20 L 14 19 L 10 19 L 10 8 L 18 8 L 18 14 L 19 14 L 19 8 L 19 7 L 17 7 L 17 4 L 16 4 L 6 4 L 5 4 z M 6 5 L 16 5 L 16 7 L 9 7 L 9 8 L 9 17 L 8 17 L 6 17 L 6 5 z "
     />
  <path
     style="fill:#1d99f3"
     d="m 17.5625,15.0625 c -0.433427,0 -0.832855,0.1201 -1.1875,0.3125 l 0.75,0.75 c 0.137094,-0.041 0.286709,-0.0625 0.4375,-0.0625 0.831,0 1.5,0.669 1.5,1.5 0,0.1508 -0.02148,0.3004 -0.0625,0.4375 l 0.75,0.75 c 0.192495,-0.3547 0.3125,-0.7541 0.3125,-1.1875 0,-1.385 -1.115,-2.5 -2.5,-2.5 z M 15.375,16.375 c -0.192495,0.3547 -0.3125,0.7541 -0.3125,1.1875 0,1.385 1.115,2.5 2.5,2.5 0.433427,0 0.832855,-0.1201 1.1875,-0.3125 L 18,19 c -0.137094,0.041 -0.286709,0.0625 -0.4375,0.0625 -0.831,0 -1.5,-0.669 -1.5,-1.5 0,-0.1508 0.02147,-0.3004 0.0625,-0.4375 z"
     />
</svg>
